works/GoSurf/app/img/marker.svg

<svg width="14" height="17" viewBox="0 0 14 17" fill="none" xmlns="http://www.w3.org/2000/svg">
<g opacity="0.299219">
<path fill-rule="evenodd" clip-rule="evenodd" d="M6.9156 0.375244C8.475 0.375244 9.98904 0.901804 11.1828 1.85804V1.85801C12.7422 3.10637 13.6594 4.88137 13.7703 6.85481C13.8766 8.80317 13.1484 10.7094 11.7734 12.0844L7.21544 16.5828C7.03888 16.7578 6.73264 16.7562 6.55608 16.5812L2.06248 12.0876C0.684357 10.7095 -0.0453348 8.80172 0.0624772 6.85484C0.171837 4.88148 1.0906 3.10648 2.6484 1.85804C3.8406 0.901804 5.35624 0.375244 6.9156 0.375244ZM3.85312 7.23476C3.85312 8.9238 5.22652 10.2972 6.9156 10.2972C8.60464 10.2972 9.97964 8.92384 9.97808 7.23476C9.97808 5.54572 8.60468 4.17228 6.9156 4.17228C5.22656 4.17228 3.85312 5.54568 3.85312 7.23476Z" fill="white"/>
<path d="M6.9156 5.74194C6.09216 5.74194 5.4234 6.4107 5.4234 7.23414C5.4234 8.05758 6.09216 8.72634 6.9156 8.72634C7.73904 8.72634 8.4078 8.05758 8.4078 7.23414C8.4078 6.4107 7.73904 5.74194 6.9156 5.74194Z" fill="white"/>
</g>
</svg>

<svg width="14" height="17" fill="none" xmlns="http://www.w3.org/2000/svg"><g opacity=".299" fill="#fff"><path fill-rule="evenodd" clip-rule="evenodd" d="M6.916.375a6.84 6.84 0 014.267 1.483c1.56 1.248 2.476 3.023 2.587 4.997a6.874 6.874 0 01-1.997 5.23l-4.558 4.498a.48.48 0 01-.659-.002l-4.494-4.493a6.873 6.873 0 01-2-5.233c.11-1.974 1.029-3.749 2.586-4.997A6.836 6.836 0 016.916.375zm-3.063 6.86a3.065 3.065 0 003.063 3.062 3.064 3.064 0 003.062-3.062 3.065 3.065 0 00-3.062-3.063 3.065 3.065 0 00-3.063 3.063z"/><path d="M6.916 5.742a1.493 1.493 0 10.001 2.986 1.493 1.493 0 00-.001-2.986z"/></g></svg>
